resources/icons/20px/third-party.svg

<svg width="20" height="18" viewBox="0 0 20 18" fill="none" xmlns="http://www.w3.org/2000/svg">
<path fill-rule="evenodd" clip-rule="evenodd" d="M8 0C3.58 0 0 3.58 0 8C0 11.6773 2.47803 14.7732 5.85617 15.7098C5.92032 15.653 5.98452 15.6013 6.04672 15.5544C6.3238 15.3451 6.64089 15.1706 6.94187 15.0244C7.30033 14.8501 7.75203 14.6655 8.13512 14.509C8.34144 14.4246 8.52791 14.3484 8.6693 14.2863C8.74952 14.2511 8.81632 14.2194 8.87173 14.1912C8.76097 14.0491 8.65921 13.8985 8.56723 13.7413C8.38172 13.9115 8.19005 14 8 14C7.33 14 6.64 12.9 6.27 11H7.52248C7.56922 10.7042 7.67538 10.4289 7.84532 10.2025C7.84769 10.1365 7.85067 10.0688 7.85429 10H6.12C6.05 9.39 6 8.73 6 8C6 7.27 6.05 6.61 6.12 6H9.88C9.89294 6.11276 9.9052 6.22723 9.91658 6.34354C10.2315 6.19883 10.5666 6.10209 10.8955 6.0491L10.89 6H13.65C13.6769 6.07699 13.7024 6.15457 13.7265 6.23273L13.844 6.1927C14.2177 6.06539 14.6165 6 14.9979 6C15.2452 6 15.5074 6.02785 15.7698 6.08583C14.9124 2.59094 11.7602 0 8 0ZM13.17 5H10.73C10.52 3.89 10.22 2.97 9.82 2.31C11.25 2.77 12.43 3.74 13.17 5ZM8 2C8.67 2 9.36 3.1 9.73 5H6.27C6.64 3.1 7.33 2 8 2ZM6.18 2.31C5.78 2.97 5.47 3.89 5.27 5H2.83C3.57 3.74 4.75 2.77 6.18 2.31ZM2 8C2 7.3 2.13 6.63 2.35 6H5.11C5.04 6.62 5 7.28 5 8C5 8.72 5.04 9.38 5.11 10H2.35C2.13 9.37 2 8.7 2 8ZM2.83 11H5.27C5.48 12.11 5.78 13.03 6.18 13.69C4.75 13.23 3.57 12.26 2.83 11Z" fill="black"/>
<path d="M13.917 15.2087C14.1278 15.3034 14.3612 15.3989 14.6018 15.4974C15.5144 15.8709 16.5289 16.286 16.79 16.8519C17.0993 17.5737 16.9756 18 16.9756 18H6.02672C6.02672 18 5.89614 17.5737 6.2123 16.8519C6.46819 16.2676 7.51654 15.841 8.44626 15.4626C8.6652 15.3735 8.87763 15.287 9.07151 15.2019C9.98055 14.8025 9.99488 14.5404 10.0122 14.2242C10.0142 14.1866 10.0163 14.1482 10.02 14.1087C10.02 14.0847 10.0217 14.0607 10.0234 14.0366C10.0251 14.0125 10.0269 13.9884 10.0269 13.9644C9.66946 13.655 9.37392 13.2219 9.18835 12.7269L9.18147 12.72C9.18147 12.7166 9.17976 12.7131 9.17804 12.7097C9.17632 12.7063 9.1746 12.7028 9.1746 12.6994C9.12649 12.5963 9.09212 12.4794 9.06463 12.3625C8.83095 12.3212 8.69349 12.0669 8.6385 11.8263C8.58352 11.73 8.47355 11.4963 8.50104 11.2281C8.5354 10.8775 8.67974 10.7194 8.83782 10.6575V10.6025C8.83782 10.1625 8.87218 9.53687 8.95466 9.12438C8.96841 9.0075 8.9959 8.89062 9.03027 8.78063C9.18147 8.27188 9.49764 7.81812 9.9169 7.50187C10.343 7.17188 10.9547 7 11.4977 7C12.0407 7 12.6524 7.17188 13.0854 7.50187C13.5115 7.81812 13.8208 8.27875 13.972 8.78063C14.0064 8.8975 14.0339 9.0075 14.0476 9.12438C14.1232 9.53687 14.1645 10.1694 14.1645 10.6025V10.6644C14.3157 10.7263 14.4531 10.8844 14.4875 11.2281C14.5081 11.4963 14.405 11.73 14.35 11.8263C14.3019 12.06 14.1645 12.3144 13.9308 12.3625C13.9033 12.4725 13.8689 12.5894 13.8277 12.6925C13.8208 12.6994 13.8139 12.7269 13.8139 12.7269C13.6284 13.215 13.3466 13.6413 12.996 13.9506C12.996 14.0056 12.996 14.0606 13.0029 14.1087C13.0073 14.1571 13.0089 14.2037 13.0104 14.2492C13.021 14.56 13.0298 14.819 13.917 15.2087Z" fill="black"/>
<path d="M14.9758 14.5699C14.7354 14.4715 14.5207 14.3836 14.3267 14.2965L14.3192 14.2932C14.2419 14.2592 14.1778 14.2287 14.125 14.2018C14.3492 13.914 14.5343 13.5934 14.6787 13.2557L14.68 13.2544L14.6934 13.2208C14.7114 13.1777 14.7288 13.1343 14.7454 13.0907L14.7562 13.0638C14.7615 13.0505 14.7668 13.0371 14.7719 13.0237C14.877 12.9324 14.9618 12.8333 15.0276 12.7397C15.1568 12.5562 15.2407 12.3592 15.2927 12.1775C15.3977 11.9508 15.5179 11.5846 15.4846 11.1514L15.4837 11.14L15.4825 11.1286C15.4495 10.7983 15.3453 10.4792 15.1565 10.2196C15.1407 9.81179 15.1012 9.33952 15.0365 8.97343C15.0123 8.78965 14.97 8.62965 14.9314 8.49852L14.9295 8.49215C14.7812 7.99995 14.5223 7.53157 14.1666 7.13926C14.437 7.04711 14.7269 7 14.9979 7C15.4915 7 16.0476 7.15625 16.4413 7.45625C16.8287 7.74375 17.1098 8.1625 17.2473 8.61875C17.2785 8.725 17.3035 8.825 17.316 8.93125C17.3848 9.30625 17.4222 9.88125 17.4222 10.275V10.3313C17.5597 10.3875 17.6847 10.5312 17.7159 10.8438C17.7347 11.0875 17.6409 11.3 17.5909 11.3875C17.5472 11.6 17.4222 11.8313 17.2098 11.875C17.1848 11.975 17.1536 12.0813 17.1161 12.175C17.1098 12.1812 17.1036 12.2063 17.1036 12.2063C16.9349 12.65 16.6787 13.0375 16.36 13.3188C16.36 13.3688 16.36 13.4187 16.3663 13.4625C16.3703 13.5064 16.3717 13.5488 16.3731 13.5902C16.3827 13.8727 16.3907 14.1082 17.1973 14.4625C17.3889 14.5485 17.6011 14.6354 17.8198 14.7249C18.6495 15.0644 19.5717 15.4418 19.8091 15.9563C20.0903 16.6125 19.9778 17 19.9778 17H17.8967C17.8525 16.8313 17.7915 16.6501 17.7092 16.458L17.7038 16.4454L17.698 16.4329C17.515 16.0364 17.207 15.7516 16.9382 15.553C16.6601 15.3475 16.3428 15.1757 16.0419 15.031C15.7378 14.8849 15.4174 14.7511 15.1256 14.6313L14.9758 14.5699Z" fill="black"/>
</svg>

<svg xmlns="http://www.w3.org/2000/svg" viewBox="0 0 20 18">
  <path d="M8 0C3.58 0 0 3.58 0 8a8 8 0 0 0 5.856 7.71q.097-.086.19-.156c.278-.209.595-.383.896-.53.358-.174.81-.358 1.193-.515.206-.084.393-.16.534-.223a4 4 0 0 0 .203-.095 4 4 0 0 1-.305-.45C8.382 13.911 8.19 14 8 14c-.67 0-1.36-1.1-1.73-3h1.252c.047-.296.153-.571.323-.797l.01-.203H6.12C6.05 9.39 6 8.73 6 8s.05-1.39.12-2h3.76l.037.344c.315-.145.65-.242.979-.295L10.89 6h2.76q.04.116.076.233l.118-.04A3.6 3.6 0 0 1 14.998 6c.247 0 .51.028.772.086A8 8 0 0 0 8 0m5.17 5h-2.44c-.21-1.11-.51-2.03-.91-2.69 1.43.46 2.61 1.43 3.35 2.69M8 2c.67 0 1.36 1.1 1.73 3H6.27C6.64 3.1 7.33 2 8 2m-1.82.31c-.4.66-.71 1.58-.91 2.69H2.83a6.03 6.03 0 0 1 3.35-2.69M2 8c0-.7.13-1.37.35-2h2.76C5.04 6.62 5 7.28 5 8s.04 1.38.11 2H2.35C2.13 9.37 2 8.7 2 8m.83 3h2.44c.21 1.11.51 2.03.91 2.69A6.03 6.03 0 0 1 2.83 11"/>
  <path d="M13.917 15.209c.21.094.444.19.685.288.912.374 1.927.789 2.188 1.355.31.722.186 1.148.186 1.148H6.026s-.13-.426.186-1.148c.256-.584 1.305-1.011 2.234-1.39.22-.088.432-.175.626-.26.909-.4.923-.662.94-.978q.003-.056.008-.115l.003-.072q.004-.037.004-.073a3.07 3.07 0 0 1-.839-1.237l-.007-.007-.003-.01-.003-.01a1.8 1.8 0 0 1-.11-.337c-.234-.042-.372-.296-.426-.537a1.05 1.05 0 0 1-.138-.598c.034-.35.179-.509.337-.57v-.056c0-.44.034-1.065.117-1.478q.021-.177.075-.343c.151-.51.468-.963.887-1.28.426-.33 1.038-.501 1.58-.501.544 0 1.155.172 1.588.502a2.5 2.5 0 0 1 .963 1.622c.075.413.117 1.045.117 1.478v.062c.15.062.288.22.323.564.02.268-.083.502-.138.598-.048.234-.185.488-.42.537a3 3 0 0 1-.116.364 3.1 3.1 0 0 1-.818 1.224q-.002.084.007.158.006.072.007.14c.011.311.02.57.907.96"/>
  <path d="M14.976 14.57c-.24-.098-.455-.186-.65-.274l-.007-.003a4 4 0 0 1-.194-.091c.224-.288.41-.609.554-.946l.001-.002.013-.033q.028-.065.052-.13l.011-.027.016-.04c.105-.092.19-.19.256-.284.129-.184.213-.38.265-.562.105-.227.225-.593.192-1.027l-.001-.011-.002-.011a1.86 1.86 0 0 0-.325-.91 10 10 0 0 0-.12-1.246 3 3 0 0 0-.106-.474l-.001-.007a3.54 3.54 0 0 0-.763-1.353c.27-.092.56-.139.83-.139.495 0 1.05.156 1.444.456a2.27 2.27 0 0 1 .875 1.475c.069.375.106.95.106 1.344v.056c.138.056.263.2.294.513.019.244-.075.456-.125.543-.044.213-.169.444-.381.488-.025.1-.056.206-.094.3a2.815 2.815 0 0 1-.756 1.144q-.002.076.006.144.006.065.007.127c.01.283.018.518.824.873.192.086.404.172.623.262.83.34 1.752.717 1.99 1.231.28.657.168 1.044.168 1.044h-2.081a4 4 0 0 0-.188-.542l-.005-.013-.006-.012c-.183-.397-.491-.681-.76-.88a5.6 5.6 0 0 0-.896-.522 17 17 0 0 0-.916-.4z"/>
</svg>
